Obsidian-SemiLight/actions/22s/preflight-verifier.svg

<svg viewBox="0 0 22 22" xmlns="http://www.w3.org/2000/svg"><path d="m4 3v16h9v-1h-8v-14h12v9h1v-10zm2 2v5h5v-5zm6 0v1h4v-1zm0 2v1h4v-1zm0 2v1h4v-1zm-6 2v1h10v-1zm0 2v1h7v-1zm14.445312 0-4.591796 4.591797-1.146485-1.146485-.707031.707032 1.845703 1.847656.005859-.007812.007813.007812 5.292969-5.292969zm-14.445312 2v1h7v-1z" fill="#4d4d4d"/></svg>

<svg xmlns="http://www.w3.org/2000/svg" viewBox="0 0 22 22">
  <defs id="defs3051">
    <style type="text/css" id="current-color-scheme">
      .ColorScheme-Text {
        color:#4d4d4d;
      }
      </style>
  </defs>
 <path 
    style="fill:currentColor;fill-opacity:1;stroke:none" 
    d="M 4 3 L 4 19 L 13 19 L 13 18 L 5 18 L 5 4 L 17 4 L 17 13 L 18 13 L 18 3 L 4 3 z M 6 5 L 6 10 L 11 10 L 11 5 L 6 5 z M 12 5 L 12 6 L 16 6 L 16 5 L 12 5 z M 12 7 L 12 8 L 16 8 L 16 7 L 12 7 z M 12 9 L 12 10 L 16 10 L 16 9 L 12 9 z M 6 11 L 6 12 L 16 12 L 16 11 L 6 11 z M 6 13 L 6 14 L 13 14 L 13 13 L 6 13 z M 20.445312 13 L 15.853516 17.591797 L 14.707031 16.445312 L 14 17.152344 L 15.845703 19 L 15.851562 18.992188 L 15.859375 19 L 21.152344 13.707031 L 20.445312 13 z M 6 15 L 6 16 L 13 16 L 13 15 L 6 15 z "
    class="ColorScheme-Text"
    />  
</svg>
